**kern	**kern	**dynam
*part1	*part1	*part1
*staff2	*staff1	*
*I"Piano	*	*
*clefF4	*clefG2	*
*k[f#]	*k[f#]	*
=1	=1	=1
2E 2G	8gL 8b	.
.	8B	.
.	8g 8b	.
.	8B	.
4r	8g 8b	.
.	8BJ	.
=	=	=
!	!	!LO:DY:a
2EE 2BB	8f#L 8a	pp
.	8B	.
.	8f# 8a	.
.	8BJ	.
4r	8aL 8cc	.
.	8BJ	.
=	=	=
2EE 2BB	8gL 8b	.
.	8B	.
.	8g 8b	.
.	8B	.
4r	8g 8b	.
.	8BJ	.
=	=	=
*^	*	*
!	!	!LO:TX:a:i:t=  cresc.	!LO:DY:a
(4E	2.EE	8aL 8cc	p
.	.	8e	.
4D	.	8b	.
.	.	8e	.
4C)	.	8a	.
.	.	8eJ	.
=	=	=	=
(4c	2.E	8aL 8ee	.
.	.	8e	.
4B	.	8a 8dd	.
.	.	8e	.
4A)	.	8a 8cc	.
.	.	8eJ	.
=	=	=	=
!	!	!	!LO:DY:a
(4e	2.G	8ccL 8gg	f
.	.	8g	.
4d	.	8cc 8ffn	.
.	.	8g	.
4c)	.	8cc 8ee	.
.	.	8gJ	.
=	=	=	=
*	*	*^	*
2.G	2.G	2.dd	8bL	>
.	.	.	8g	.
.	.	.	8b	.
.	.	.	8g	.
.	.	.	8b	.
.	.	.	8gJ	.
*v	*v	*	*	*
*	*v	*v	*
=	=	=
*-	*-	*-
!!!system-decoration: {(s1,s2)}
